X: 372	% 105
T: Dandelion Quadrille
S: Viola Ruth "Pioneer Western Folk Tunes" 1948 p.37 #2
R: reel, march
Z: 2019 John Chambers <jc:trillian.mit.edu>
N: Bar 8 has a quarter-note F; fixed.
N: The 2nd strain could use a "warning" B-natural key signature; not fixed.
M: 2/4
L: 1/16
K: F
V: 1 name="105"
|:\
c2A2F2d2 | cAFA d2c2 | fgfe dedc | B6 GA | B2G2E2c2 | BGEG B2E2 |
[1 efed cdcB | ABAG F2 (AB) :|[2 efed cdeg | fefg [f4A4] |:[K:C] Gcec egec |
A2G2 G4 | Gcec egec | f2B2 [B4G4] | Bdfd Bdfd  e2c2 G4 | GABd GBd | cBcd c4 :|
